X: 10
T: Key Signatures
Q:120
L:1/4
K: A
%%MIDI program guitar
             |    "A"CDE FGA | Bcd efg | \
[K:G]        |    "G"CDE FGA | Bcd efg | \
[K:Bb]       |   "Bb"CDE FGA | Bcd efg | \
[K:Dm]       |   "Dm"CDE FGA | Bcd efg | \
[K:F#m]      |  "F#m"CDE FGA | Bcd efg | \
[K:ADor]     | "ADor"CDE FGA | Bcd efg | \
[K:Gm^F]     | "Gm^F"CDE FGA | Bcd efg | \
[K:DMix_B_e] | "Dhjz"CDE FGA | Bcd efg | \
[K:^G]       | "Ehjz"CDE FGA | Bcd efg | \
